flaticon/transport/demolishing.svg

<svg xmlns="http://www.w3.org/2000/svg" width="32" height="32" viewBox="0 0 24 24">
    <path d="M8.441406 8.507812C8.359375 8.1875 8.039062 7.945312 7.679688 7.945312L4.800781 7.945312C4.359375 7.945312 4 8.308594 4 8.746094L4 10.746094C4 11.1875 4.359375 11.546875 4.800781 11.546875L8.28125 11.546875C8.519531 11.546875 8.761719 11.425781 8.878906 11.226562 9.039062 10.988281 9.078125 10.746094 9 10.507812zM4.800781 10.746094L4.800781 8.746094 7.679688 8.746094 8.28125 10.746094zM5.601562 19.945312C5.359375 19.945312 5.199219 20.105469 5.199219 20.347656 5.199219 20.585938 5.359375 20.746094 5.601562 20.746094 5.839844 20.746094 6 20.585938 6 20.347656 6 20.105469 5.839844 19.945312 5.601562 19.945312zM7.601562 19.945312C7.359375 19.945312 7.199219 20.105469 7.199219 20.347656 7.199219 20.585938 7.359375 20.746094 7.601562 20.746094 7.839844 20.746094 8 20.585938 8 20.347656 8 20.105469 7.839844 19.945312 7.601562 19.945312zM9.601562 19.945312C9.359375 19.945312 9.199219 20.105469 9.199219 20.347656 9.199219 20.585938 9.359375 20.746094 9.601562 20.746094 9.839844 20.746094 10 20.585938 10 20.347656 10 20.105469 9.839844 19.945312 9.601562 19.945312zM11.601562 19.945312C11.359375 19.945312 11.199219 20.105469 11.199219 20.347656 11.199219 20.585938 11.359375 20.746094 11.601562 20.746094 11.839844 20.746094 12 20.585938 12 20.347656 12 20.105469 11.839844 19.945312 11.601562 19.945312zM13.601562 19.945312C13.359375 19.945312 13.199219 20.105469 13.199219 20.347656 13.199219 20.585938 13.359375 20.746094 13.601562 20.746094 13.839844 20.746094 14 20.585938 14 20.347656 14 20.105469 13.839844 19.945312 13.601562 19.945312zM13.601562 19.945312"/>
    <path d="M 22 9.179688 L 22 3.945312 C 22 3.933594 22 3.917969 22 3.902344 C 22.070312 3.691406 22.101562 3.464844 22.078125 3.226562 C 22.039062 2.746094 21.800781 2.308594 21.441406 2.027344 C 20.761719 1.46875 19.761719 1.546875 19.160156 2.1875 L 11.40625 10.394531 L 10.601562 6.789062 C 10.441406 6.066406 9.800781 5.546875 9.039062 5.546875 L 8 5.546875 L 8 4.746094 C 8 3.867188 7.28125 3.148438 6.398438 3.148438 C 5.519531 3.148438 4.800781 3.867188 4.800781 4.746094 L 4.800781 5.546875 L 3.601562 5.546875 C 2.71875 5.546875 2 6.265625 2 7.148438 L 2 18.347656 C 0.878906 18.347656 0 19.226562 0 20.347656 C 0 21.46875 0.878906 22.347656 2 22.347656 L 17.199219 22.347656 C 18.320312 22.347656 19.199219 21.46875 19.199219 20.347656 C 19.199219 19.226562 18.320312 18.347656 17.199219 18.347656 L 16.660156 18.347656 L 18 14.546875 C 18.160156 14.265625 18.121094 13.90625 17.960938 13.628906 C 17.761719 13.308594 17.480469 13.148438 17.121094 13.148438 L 13.332031 13.148438 L 21.199219 4.964844 L 21.199219 9.179688 C 20.070312 9.375 19.199219 10.363281 19.199219 11.546875 C 19.199219 12.867188 20.28125 13.945312 21.601562 13.945312 C 22.921875 13.945312 24 12.867188 24 11.546875 C 24 10.363281 23.132812 9.375 22 9.179688 Z M 5.601562 4.746094 C 5.601562 4.308594 5.960938 3.945312 6.398438 3.945312 C 6.839844 3.945312 7.199219 4.308594 7.199219 4.746094 L 7.199219 5.546875 L 5.601562 5.546875 Z M 2.800781 7.148438 C 2.800781 6.707031 3.160156 6.347656 3.601562 6.347656 L 9 6.347656 C 9.398438 6.347656 9.71875 6.628906 9.800781 6.988281 L 11.199219 13.148438 L 2.800781 13.148438 Z M 15.589844 21.546875 L 3.609375 21.546875 C 3.855469 21.214844 4 20.800781 4 20.347656 C 4 19.894531 3.855469 19.480469 3.609375 19.148438 L 15.589844 19.148438 C 15.34375 19.480469 15.199219 19.894531 15.199219 20.347656 C 15.199219 20.800781 15.34375 21.214844 15.589844 21.546875 Z M 0.800781 20.347656 C 0.800781 19.667969 1.320312 19.148438 2 19.148438 C 2.679688 19.148438 3.199219 19.667969 3.199219 20.347656 C 3.199219 21.027344 2.679688 21.546875 2 21.546875 C 1.320312 21.546875 0.800781 21.027344 0.800781 20.347656 Z M 18.398438 20.347656 C 18.398438 21.027344 17.878906 21.546875 17.199219 21.546875 C 16.519531 21.546875 16 21.027344 16 20.347656 C 16 19.667969 16.519531 19.148438 17.199219 19.148438 C 17.878906 19.148438 18.398438 19.667969 18.398438 20.347656 Z M 17.28125 14.066406 C 17.28125 14.066406 17.320312 14.148438 17.28125 14.226562 L 15.839844 18.265625 C 15.800781 18.308594 15.761719 18.347656 15.679688 18.347656 L 2.800781 18.347656 L 2.800781 17.148438 L 11.601562 17.148438 C 11.839844 17.148438 12 16.988281 12 16.746094 C 12 16.507812 11.839844 16.347656 11.601562 16.347656 L 2.800781 16.347656 L 2.800781 15.546875 L 9.199219 15.546875 C 9.441406 15.546875 9.601562 15.386719 9.601562 15.148438 C 9.601562 14.90625 9.441406 14.746094 9.199219 14.746094 L 2.800781 14.746094 L 2.800781 13.988281 L 17.121094 13.988281 C 17.199219 13.988281 17.28125 14.027344 17.28125 14.066406 Z M 12.238281 13.148438 L 12.039062 13.148438 L 11.753906 11.949219 L 11.609375 11.296875 L 19.761719 2.789062 C 20.078125 2.46875 20.601562 2.425781 20.960938 2.707031 C 21.160156 2.828125 21.28125 3.066406 21.28125 3.308594 C 21.28125 3.546875 21.199219 3.789062 21.039062 3.945312 Z M 21.601562 13.148438 C 20.71875 13.148438 20 12.425781 20 11.546875 C 20 10.667969 20.71875 9.949219 21.601562 9.949219 C 22.480469 9.949219 23.199219 10.667969 23.199219 11.546875 C 23.199219 12.425781 22.480469 13.148438 21.601562 13.148438 Z M 21.601562 13.148438"/>
</svg>

<svg xmlns="http://www.w3.org/2000/svg" width="32" height="32" viewBox="0 0 24 24">
    <path d="M8.441 8.508c-.082-.32-.402-.563-.761-.563H4.8c-.44 0-.8.364-.8.801v2c0 .441.36.8.8.8h3.481c.239 0 .48-.12.598-.32.16-.238.2-.48.121-.718zm-3.64 2.238v-2H7.68l.601 2zm0 0M5.602 19.945c-.243 0-.403.16-.403.403 0 .238.16.398.403.398.238 0 .398-.16.398-.398 0-.243-.16-.403-.398-.403zm0 0M7.602 19.945c-.243 0-.403.16-.403.403 0 .238.16.398.403.398.238 0 .398-.16.398-.398 0-.243-.16-.403-.398-.403zm0 0M9.602 19.945c-.243 0-.403.16-.403.403 0 .238.16.398.403.398.238 0 .398-.16.398-.398 0-.243-.16-.403-.398-.403zm0 0M11.602 19.945c-.243 0-.403.16-.403.403 0 .238.16.398.403.398.238 0 .398-.16.398-.398 0-.243-.16-.403-.398-.403zm0 0M13.602 19.945c-.243 0-.403.16-.403.403 0 .238.16.398.403.398.238 0 .398-.16.398-.398 0-.243-.16-.403-.398-.403zm0 0"/>
    <path d="M22 9.18V3.945v-.043c.07-.21.102-.437.078-.675a1.703 1.703 0 0 0-.637-1.2 1.676 1.676 0 0 0-2.28.16l-7.755 8.208-.804-3.606a1.59 1.59 0 0 0-1.563-1.242H8v-.8c0-.88-.719-1.599-1.602-1.599-.878 0-1.597.72-1.597 1.598v.8H3.6C2.72 5.547 2 6.267 2 7.149v11.2c-1.121 0-2 .879-2 2 0 1.12.879 2 2 2h15.2c1.12 0 2-.88 2-2 0-1.121-.88-2-2-2h-.54L18 14.547c.16-.281.121-.64-.04-.918-.198-.32-.48-.48-.839-.48h-3.789l7.867-8.184V9.18a2.415 2.415 0 0 0-2 2.367 2.407 2.407 0 0 0 2.403 2.398A2.404 2.404 0 0 0 24 11.547a2.411 2.411 0 0 0-2-2.367zM5.602 4.746c0-.437.359-.8.796-.8.442 0 .801.363.801.8v.8H5.602zM2.8 7.148c0-.441.36-.8.8-.8H9c.398 0 .719.28.8.64l1.4 6.16H2.8zM15.59 21.547H3.61c.245-.332.39-.746.39-1.2 0-.452-.145-.867-.39-1.199h11.98c-.246.332-.39.747-.39 1.2 0 .453.144.867.39 1.199zM.8 20.347c0-.679.52-1.199 1.2-1.199.68 0 1.2.52 1.2 1.2 0 .68-.52 1.199-1.2 1.199-.68 0-1.2-.52-1.2-1.2zm17.598 0c0 .68-.52 1.2-1.199 1.2-.68 0-1.199-.52-1.199-1.2 0-.679.52-1.199 1.2-1.199.679 0 1.198.52 1.198 1.2zm-1.117-6.28a.2.2 0 0 0 0 .16l-1.441 4.039c-.04.043-.078.082-.16.082H2.8v-1.2h8.802c.238 0 .398-.16.398-.402 0-.238-.16-.398-.398-.398H2.8v-.801h6.398c.242 0 .403-.16.403-.399 0-.242-.16-.402-.403-.402H2.801v-.758h14.32c.078 0 .16.04.16.078zm-5.043-.919h-.199l-.285-1.199-.145-.652 8.153-8.508a.912.912 0 0 1 1.199-.082c.2.121.32.36.32.602 0 .238-.082.48-.242.636zm9.364 0A1.606 1.606 0 0 1 20 11.547c0-.879.719-1.598 1.602-1.598.878 0 1.597.719 1.597 1.598 0 .879-.719 1.601-1.597 1.601zm0 0"/>
</svg>
